X: 8
T: Farewell to Summer
C: Armand Aromin
H: 8/31/04
M: 4/4
L: 1/8
R: Hornpipe
K: Gmaj
DF G2 BdcA | FDFG AB c2 | Bcdg fged | cBcB AG F2 |
DF G2 BdcA | FDFG AB c2 | Bcdg fged | cBcB AF G2 :|
GA B2 BdcB | AGFG AB c2 | Bcdg fged | cBcB AG F2 |
GA B2 BdcB | AGFG AB c2 | Bcdg fged | cBcB AF G2 :|



